svg/tag.svg

<svg width="24" height="24" viewBox="0 0 24 24" fill="none" xmlns="http://www.w3.org/2000/svg">
<path d="M2 3C2 2.44772 2.44772 2 3 2H11C11.2652 2 11.5196 2.10536 11.7071 2.29289L21.7071 12.2929C22.0976 12.6834 22.0976 13.3166 21.7071 13.7071L13.7071 21.7071C13.3166 22.0976 12.6834 22.0976 12.2929 21.7071L2.29289 11.7071C2.10536 11.5196 2 11.2652 2 11V3ZM4 4V10.5858L13 19.5858L19.5858 13L10.5858 4H4Z" fill="#0D0D0D"/>
<path d="M9 7.5C9 8.32843 8.32843 9 7.5 9C6.67157 9 6 8.32843 6 7.5C6 6.67157 6.67157 6 7.5 6C8.32843 6 9 6.67157 9 7.5Z" fill="#0D0D0D"/>
</svg>

<svg width="24" height="24" fill="none" xmlns="http://www.w3.org/2000/svg"><path d="M2 3a1 1 0 011-1h8a1 1 0 01.707.293l10 10a1 1 0 010 1.414l-8 8a1 1 0 01-1.414 0l-10-10A1 1 0 012 11V3zm2 1v6.586l9 9L19.586 13l-9-9H4z" fill="#0D0D0D"/><path d="M9 7.5a1.5 1.5 0 11-3 0 1.5 1.5 0 013 0z" fill="#0D0D0D"/></svg>
